X: 69
T:Caledonian Hunt (#265), The
M:4/4
L:1/8
S:Aird's Selections 1782-97
R:Reel
K:D
A|FAdA BdAF|GBAF BEEA|FAdA BdAF|GBAG FDDG|
FAdA BdAF|GBAF BEEG|FAdA B/2c/2d AG|FA Eg fdd||
f|sd/2e/2f/2g/2s af bgaf|sd/2e/2f/2g/2s af geef|sd/2e/2f/2g/2s af bgaf|A
aag feef|
d/2e/2f/2g/2 af bgag|d/2e/2f/2g/2 af geeg|fdef dBAF|ABde fdd||
%
% This favorite first appeared in Ross' Choice Collection of Scots
% Reels Country Dances and Strathspeys, Edinburgh 1780.

